X:129 
T:Miller's Daughter 1 (reel), The  
B:CRE5.185i (InÃÂÃÂÃÂÃÂ­on an Mhuilleora)
F:file ID: cre.5/129mill_d1
B:CRE5.185i (InÃÂÃÂÃÂÃÂ­on an Mhuilleora)
M:4/4
Q:180
R:reel
K:A
zE|A2 (3cBA ceec|dBcA BdcB|A2 (3cBA ceed|ceaf edcB|
A2 (3cBA ceec|dBcA BdcB|Aea/g/a Adf/e/f|ecdB A2:|
|:fg|afge fdec|dBcA BdcB|A2ae fedc|defg agaf|
afge fdec|dBcA BdcB|Aea/g/a Adf/e/f|ecdB A2:|

%%%

